X:52
T:The Birk's of Abergeldy
S:Petrie's Second Collection of Strathspey Reels and Country Dances &c.
Z:Steve Wyrick , 6/11/04
N:Petrie's Second Collection, page 18
% Gore's Index gives earliest publication as Neil Stewart's
% "Collection of the Newst & Best R. or C.D.s for Vn." Edinburgh 1761
L:1/8
M:C|
R:Reel
K:F
FGAc f2(fd)|f2(fd) (e/f/g)   (f/g/a)|FGAc (f/e/f/g/) (ag)|f(dTcA) G2d2:|
(FGA)f cFAF|cFAc   (d/c/B/A/) GA    |FGAc fgag           |f(dTcA) G2d2 |
(FGA)f cfAf|cfAf   (d/c/B/A/) GA    |FGAc (f/e/f/g/) ag  |f(dTcA) G2d2|]
